X: 1
T:Mazurka : Jackie Donnan's mazurka
Z:Roger Ngaret (Mai 2001)
R:
C:The Boys of the Lough
S:
A:Irlande
M:3/4
L:1/16
K:C
%%rm
G2E2 |: .C4 .C4 E2G2 | .c4 .c4 B2c2 | .d4 d2c2 B2c2 |
D6F2 E2D2 | .D4 .C4 E2G2 | .c4 .c4 B2c2 |
.d4 d2e2 f2d2 |1 c6G2 E2C2 :|2 c6e2 g2e2 |:
.c4 c2d2 g2f2 | .A4 .A4 G2B2 | .d4 d2e2 f2d2 | 
c6e2 g2e2 | .c4 c2d2 g2f2 | .A4 .A4 G2B2 | .d4 d2e2 f2d2 
|1 c6e2 g2e2 :|2 c12 |]
